X:1
T:James Gibb editions
T:Dizen a mí - Vásquez
T:#
%%score [ 1 2 3 4 ]
L:1/8
Q:1/4=91
M:4/4
K:F
V:1 treble nm="Soprano" snm="S"
V:2 treble nm="Alto" snm="A"
V:3 treble-8 nm="Tenor" snm="T"
V:4 bass nm="Bass" snm="B"
V:1
"^Dizen a mí que los amores é""^Juan Vásquez\n(c.1500-c.1560)" z8 | z8 | A8 | B4 B4 | A4 F4 | %5
w: ||Di-|zen a|mí que|
 G4 G4 | (F4 B4) | A4 (G4- |[M:4/4] G4 ^F4 | G8) | z8 | z4 B4 | G2 G2 A2 A2 | B4 (G4- | G4 F4) | %15
w: los a-|mo\- *|res é,||||Di-|zen a mí que|los a\-||
 (E4 D4- | D4 ^C4 | D8 | z8 | z4 D4 | G8 | A4 A4 | B4 G4- | G4 c4- | c2 B2 A4- | A2 G2) (G4- | %26
w: mo\- *|* res|é.||¡Con|e-|llos me|ve- a|* si|* lo tal|* * pen\-|
 G4 ^F4) | G8- | G8 | z4 D4 | G8 | A4 A4 | B4 G4- | G4 c4- | c2 B2 (A4- | A2 G2) (G4- | G4 ^F4) | %37
w: |sé!||¡Con|e-|llos me|ve- a|* si|* lo tal|* * pen\-||
 G8 | z8 | z8 | z8 | z4 A4- | A4 G4- | G4 F4- | F4 E4- | E4 F4- | F4 E4- | E4 (D4- | D4 C4) | D8 | %50
w: sé!||||Di\-|* zen|* a|* mí|* por|* la|* vi\-||lla,|
 z8 | z4 d4- | d4 c4- | c4 B4- | B4 A4- | A4 B4- | B4 A4- | A4 (G4- | G4 ^F4) | G8- | G8 | z8 | %62
w: |Di\-|* zen|* a|* mí|* por|* la|* vi\-||lla,|||
 z8 | z4 A4 | B2 B2 B2 B2 | A2 A2 F2 F2 | G8 | F4 A4 | A2 A2 A2 A2 | G2 G2 F4- | F4 (E4- | E4 D4) | %72
w: |Que|tray- go los a-|mo- res en la|cin-|ta, Que|tray- go los a-|mo- res en|* la||
 (^C4 D4- | D4 ^C4) | D4 D4 | G8 | A4 A4 | B4 G4- | G4 c4- | c2 B2 (A4- | A2 G2) (G4- | G4 ^F4) | %82
w: cin\- *||ta. ¡Con|e-|llos me|ve- a|* si|* lo tal|* * pen\-||
 G8 | z8 | z8 | z8 | z8 | z8 | z8 | A8 | B4 B4 | A4 F4 | G2 G2 G2 G2 | F4 B4 | A4 G4- | G4 (F4- | %96
w: sé!|||||||Di-|zen a|mí que|los a- mo- res|é, que|los a\-|* mo\-|
 F4 E4- | E4 D4- | D4) ^C4 | D8- | D8 | z8 | z8 | z4 D4 | G8 | A4 A4 | B4 G4- | G4 c4- | %108
w: ||* res|é.||||¡Con|e-|llos me|ve- a|* si|
 c2 B2 (A4- | A2 G2) (G4- | G4 ^F4) | G8- | G8 | z4 D4 | G8 | A4 A4 | B4 G4- | G4 c4- | %118
w: * lo tal|* * pen\-||sé!||¡Con|e-|llos me|ve- a|* si|
 c2 B2 (A4- | A2 G2) (G4- | G4 ^F4) | G16 |] %122
w: * lo tal|* * pen\-||sé!|
V:2
 A,8 | B,4 B,4 | A,4 F,4 | G,4 G,4 | F,4 (B,4- | B,4 A,2 G,2) | A,4 D4 | C6 B,2 |[M:4/4] A,4 A,4 | %9
w: Di-|zen a|mí que|los a-|mo- res||é, que|los a-|mo- res|
 G,4 D4 | G,2 G,2 A,4- | A,4 B,4 | C4 A,4 | D4 (D4- | D2 C2 A,4) | B,8 | z4 A,4 | A,4 B,2 B,2 | %18
w: é, Di-|zen a mí|* que|los a|mo- res||é,|¡Con|e- llos ine|
 (C6 B,2) | A,4 F4 | E2 D2 (G4- | G4 ^F4) | G4 E4 | E4 E2 E2 | E2 E2 F2 F2 | _E4 C4 | D8 | z4 B,4 | %28
w: ve\- *|a si|lo tal pen\-||sé! ¡Con|e- llos me|ve- a si lo|tal pen-|sé!|¡Con|
 C4 C2 B,2 | A,2 F,2 F2 F2 | (E2 D2) (G4- | G4 ^F4) | G4 E4 | E4 E2 E2 | E2 E2 F2 F2 | _E4 C4 | %36
w: e- llos me|ve- a si lo|tal * pen\-||sé! ¡Con|e- llos me|ve- a si lo|tal pen-|
 D8- | D8 | z4 D4 | C8 | B,8 | A,4 C4 | B,8 | A,8 | C4 z2 C2 | C2 C2 D4- | D4 C4 | A,4 (B,4- | %48
w: sé!||Di-|zen|a|mí por|la|vi-|lla. Di-|zen a mí|* por|la vi\-|
 B,2 A,2 G,4 | G,4 ^F,4) | G,4 D4 | G2 G2 F4- | F4 A4- | A4 G4 | G4 F4 | z4 D4 | F2 F2 C4 | %57
w: ||lla, Di|zen a mí|* por|* la|vi- lla,|Di-|zen a mí|
 _E4 E4 | D4 D4 | z4 D4 | D2 D2 B,2 B,2 | C2 C2 D4- | D4 (C2 B,2) | A,4 D4 | z4 D4 | F2 F2 D2 D2 | %66
w: por la|vi- lla,|Que|tray- go los a-|mo- res en|* la *|cin- ta,|Que|tray- go los a-|
 _E8 | D4 F4 | E3 E E3 E | E4 D4 | D4 (C2 B,2) | (A,4 B,4) | A,8 | z4 E4 | F4 F2 F2 | E2 D2 G4- | %76
w: mo-|res, Que|tray- go los a-|mo- res|en la *|cin\- *|ta.|¡Con|e- llos me|ve- a si|
 G2 G2 F2 F2 | G4 E4 | E4 E2 E2 | E2 E2 F2 F2 | _E4 C4 | D8 | z4 B,4 | A,4 (B,4- | B,2 A,2) (G,4- | %85
w: * lo tal pen-|sé! ¡Con|e- llos me|ve- a si lo|tal pen-|sé!|Si|lo tal|* * pen\-|
 G,4 ^F,4) | G,4 D4 | E4 F4 | D2 D2 D2 D2 | F4 F4 | D8- | D8 | z8 | D8 | _E4 E4 | D8- | D4 C4 | %97
w: |sé! Di-|zen a|mí que los a-|mo- res|é,|||Di-|zen a|mí|* que|
 A,2 A,2 B,2 B,2 | A,8 | z4 B,4 | A,4 D4- | D2 D2 C4 | D4 (F2 _E2) | (D2 C2 B,2 A,2) | G,4 (G4- | %105
w: los a- mo- res|é.|¡Con|e- llos|* me ve-|a si *|lo * * *|tal pen\-|
 G4 ^F4) | G4 E4 | E4 E2 E2 | E2 E2 F2 F2 | _E4 C4 | D8 | z4 B,4 | C4 C2 B,2 | A,2 F,2 F2 F2 | %114
w: |sé! ¡Con|e- llos me|ve- a si lo|tal pen-|sé!|¡Con|e- llos me|ve- a si lo|
 (E2 D2) (G4- | G4 ^F4) | G4 E4 | E4 E2 E2 | E2 E2 F2 F2 | _E4 C4 | D8- | D16 |] %122
w: tal * pen\-||sé! ¡Con|e- llos me|ve- a si lo|tal pen-|sé!||
V:3
 z8 | z8 | z8 | z8 | z8 | z8 | d8 | _e4 e4 |[M:4/4][K:treble-8] d8- | d4 B4 | c4 c4 | d8 | c8 | %13
w: ||||||Di-|zen a|mí|* que|los a-|mo-|res|
 B4 B4 | A4 A4 | (G6 F2) | E8 | D4 D4 | E4 G4- | G2 G2 F4 | G4 B4 | A4 d4- | d2 d2 c4 | z2 c4 B2 | %24
w: é, que|los a-|mo\- *|res|é. ¡Con|e- llos|* me ve-|a si|lo tal|* pen- sé!|si lo|
 (A6 B2) | (c2 B2 A2 G2 | A8) | G4 D4 | E4 G4- | G2 F2 F4 | G4 B4 | A4 d4- | d2 d2 c4 | z2 c4 B2 | %34
w: tal *|pen\- * * *||sé! ¡Con|e- llos|* me ve-|a si|lo tal|* pen- sé!|si lo|
 (A6 B2) | (c2 B2 A2 G2 | A8) | G4 B4- | B4 A4- | A4 G4 | G4 F4- | F4 E4 | D8 | F4 z2 F2 | G4 G4 | %45
w: tal *|pen\- * * *||sé! Di\-|* zen|* a|mí por|* la|vi-|lla. Di-|zen a|
 A8 | B4 (G4 | G4 F4) | (G8 | A8) | G4 (B4- | B2 c2) d2 e2 | (f2 d2) e4 | (f4 d4) | _e4 c4- | %55
w: mí|por la||vi\-||lla, Di\-|* * zen a|mí * por|la *|vi- lla,|
 c4 B4 | d2 d2 A4 | B4 c4 | A8 | G4 B4 | B2 B2 B2 B2 | A2 G2 F2 _E2 | (F2 D2 G4- | G4 ^F4) | G8 | %65
w: * Di-|zen a mí|por la|vi-|lla, Que|tray- go los a-|mo- res en la|cin\- * *||ta,|
 z4 A4 | c2 c2 c2 c2 | A4 F4 | A4 c2 c2 | c2 c2 A4 | B4 G4 | (F4 G4) | (E6 D2 | E8) | D4 A4 | %75
w: Que|tray- go los a-|mo res,|Que tray- go|los a- mo-|res en|la *|cin\- *||ta. ¡Con|
 c4 B4 | A4 d4- | d4 c4 | z2 c4 B2 | (A6 B2 | c2 B2 A2 G2) | A8 | G4 z2 G2 | F4 D4 | _E8 | D8 | %86
w: e- llos|me ve\-|* a|si lo|tal *||pen-|sé! si|lo tal|pen-|sé!|
 z8 | z4 A4 | B4 B4 | A4 F4 | G2 G2 G2 G2 | F4 B4 | B4 G4 | A4 d4 | c6 B2 | A4 A4 | G4 z2 G2 | %97
w: |Di-|zen a|mí que|los a- mo- res|é, Di-|zen a|mí que|los a-|mo- res|e, que|
 F4 G4 | E4 E4 | D8 | z4 D4 | G8 | A4 A4 | B4 B4 | c4 B4 | d8 | d4 c4 | z2 c4 B2 | (A6 B2) | %109
w: los a-|mo- res|é.|¡Con|e-|llos me|ve- a|si lo|tal|pen- sé!|si lo|tal *|
 (c2 B2 A2 G2 | A8) | G4 D4 | E4 G4- | G2 F2 F4 | G4 B4 | A4 d4- | d2 d2 c4 | z2 c4 B2 | (A6 B2) | %119
w: pen\- * * *||sé! ¡Con|e- llos|* me ve-|a si|lo tal|* pen- sé!|si lo|tal *|
 (c2 B2 A2 G2 | A8) | G16 |] %122
w: pen\- * * *||sé!|
V:4
 z8 | z8 | z8 | z8 | D,8 | _E,4 E,4 | D,4 B,,4 | C,4 C,4 |[M:4/4] D,4 D,4 | G,,4 G,4 | %10
w: ||||Di-|zen a|mí que|los a-|mo- res|é, Di-|
 E,2 E,2 F,4- | F,2 F,2 G,2 G,2 | E,2 E,2 F,4 | z2 G,4 G,2 | D,8 | G,,4 G,,4 | A,,8 | z4 G,,4 | %18
w: zen a mí|* que los a-|mo- res é,|que los|a-|mo- res|é.|¡Con|
 C,8 | D,6 D,2 | C,2 C,2 G,,2 G,,2 | D,4 D,4 | G,,4 C,4- | C,4 A,,4- | A,,4 D,4 | (C,4 _E,4) | %26
w: e-|llos me|ve- a si lo|tal pen-|sé! si|* lo|* tal|pen\- *|
 D,8 | z4 G,,4 | C,8 | D,6 D,2 | C,2 C,2 G,,2 G,,2 | D,4 D,4 | G,,4 C,4- | C,4 A,,4- | A,,4 D,4 | %35
w: sé!|¡Con|e-|llos me|ve- a si lo|tal pen-|sé! si|* lo|* tal|
 (C,4 _E,4 | D,8) | G,,4 G,4- | G,4 (F,4- | F,2 _E,2) C,4 | _E,4 (D,4- | D,2 C,2) A,,4 | %42
w: pen\- *||sé! Di\-|* zen|* * a|mí por|* * la|
 (B,,4 G,,4 | D,8) | C,4 C,2 C,2 | A,,4 D,4 | B,,4 C,4 | (D,8 | _E,8 | D,8) | G,,4 G,4- | %51
w: vi\- *||lla, Di- zen|a mí|por la|vi\-|||lla, Di\-|
 G,4 B,4- | B,4 A,4 | F,4 G,2 G,2 | _E,4 F,4- | F,4 G,4 | D,2 D,2 F,4 | _E,4 C,4 | D,8 | G,,4 G,4 | %60
w: * zen|* a|mí por la|vi- lla,|* Di-|zen a mí|por la|vi-|lla, Que|
 G,2 G,2 G,2 G,2 | F,2 E,2 D,2 C,2 | (B,,4 C,4 | D,8) | G,,4 G,4 | D,2 D,2 D,2 D,2 | C,8 | D,8 | %68
w: tray- go los a-|mo- res en la|cin\- *||ta, a-|mo- res en la|cin-|ta.|
 z4 A,,4 | C,2 C,2 D,2 D,2 | B,,4 C,4 | D,2 D,2 G,,4 | A,,8- | A,,8 | z4 D,4 | C,4 G,,2 G,,2 | %76
w: Que|tray- go los a-|mo- res|en la cin-|ta,||¡Con|e- llos me|
 D,8 | G,,4 C,4- | C,4 A,,4- | A,,4 D,4 | (C,4 _E,4 | D,8) | (G,,8 | D,8) | z8 | A,8 | B,4 B,4 | %87
w: ve-|a si|* lo|* tal|pen\- *||sé!|||Di-|zen a|
 A,4 F,4 | G,2 G,2 G,2 G,2 | D,8 | z8 | D,8 | _E,4 E,4 | D,4 B,,4 | C,4 C,4 | D,6 C,2 | B,,4 C,4 | %97
w: mí que|los a- mo- res|é,||Di-|zen a|mí que|los a-|mo- res|e, que|
 D,2 D,2 G,,2 G,,2 | A,,8 | z4 G,,4 | D,8 | _E,4 E,4 | D,4 D,4 | G,8 | C,4 _E,4 | D,8 | G,,4 C,4- | %107
w: los a- mo- res|é.|¡Con|e-|llos me|ve- a|si|lo tal|pen-|sé! si|
 C,4 A,,4- | A,,4 D,4 | (C,4 _E,4 | D,8) | G,,4 G,,4 | C,8 | D,6 D,2 | C,2 C,2 G,,2 G,,2 | %115
w: * lo|* tal|pen\- *||sé! ¡Con|e-|llos me|ve- a si lo|
 D,4 D,4 | G,,4 C,4- | C,4 A,,4- | A,,4 D,4 | (C,4 _E,4 | D,8) | G,,16 |] %122
w: tal pen-|sé! si|* lo|* tal|pen\- *||sé!|

